!!!SOCIAL_FUNCTION:	songs of war
!!!PDT:	1913
!!!OTL: No_9_On_the_Bank_of_a_Stream.krn
!!!REG: Great_Lakes
!!!LANG: Non-Tone
!!!LING_GROUP: Algonquin
**kern	**kern
*staff2	*staff1
*clefF4	*clefF4
*k[b-e-]	*k[b-e-]
*M2/4	*M2/4
8r	8D\
=1	=1
8GG/L	4.D\
8GG/J	.
8GG/L	.
8GG/J	8d\
=2	=2
8GG/L	4.d\
8GG/J	.
8GG/L	.
8GG/J	8d\
=3	=3
2r	4d\
.	4d\
=4||	=4||
*M3/4	*M3/4
2.r	8d\L
.	8d\J
.	8.d\L
.	16d\Jk
.	8d\L
.	8c\J
=5||	=5||
*M2/4	*M2/4
2r	2B-\
=6	=6
2r	2B-\
=7	=7
2r	4.c\
.	8B-\
=8||	=8||
*M3/4	*M3/4
2.r	2c\
.	8c\L
.	8B-\J
=9||	=9||
*M2/4	*M2/4
2r	2G\
=10	=10
2r	4.G\
.	8A\
=11	=11
2r	4.B-\
.	8G\
=12||	=12||
*M3/4	*M3/4
2.r	2B-\
.	8c\L
.	8c\J
=13||	=13||
*M2/4	*M2/4
2r	4.c\
.	8B-\
=14	=14
2r	2c\
=15||	=15||
*M3/4	*M3/4
2.r	8c\L
.	8B-\J
.	8G\L
.	8F\J
.	4G\
=16	=16
2.r	2.G\
==	==
*-	*-
